X:1
T:Back to the Blessed Old Bible
T:Back to the Blessed Old Bible
T:Daniel O. Teasley, 1901
T:D. O. T., 1901
T:PUBLIC DOMAIN
T:PUBLIC DOMAIN
C:Daniel O. Teasley, 1901
Z:D. O. T., 1901
Z:PUBLIC DOMAIN
%%score ( 1 2 ) ( 3 4 )
L:1/8
Q:3/8=50
M:6/8
K:D
V:1 treble nm="SOPRANO ALTO"
V:2 treble 
V:3 bass nm="TENOR BASS"
V:4 bass 
V:1
 [FA]3/2 [FA]/ [FA] [DF]3/2 [EG]/ [FA] | [GB]3 [FA]3 | [DF]3/2 [DF]/[DF] ([DF]3/2 [DE]/)D | [CE]6 | %4
w: 1.~Back to the bless- ed old|Bi- ble,|Back to the cit- y of|God;|
w: 2.~Back to the bless- ed old|Bi- ble,|Saints of Je- ho- vah, re-|joice;|
w: 3.~Back to the bless- ed old|Bi- ble,|Leav- ing con- fu- sion and|strife;|
w: 4.~Back to the bless- ed old|Bi- ble,|Back at the Mas- _ ter’s|call,|
 [FA]3/2 [FA]/ [FA] [DF]3/2 [EG]/ [FA] | [GB]3 [FA]3 | [Ec]3/2 [DB]/ [CA] [EB]3/2 [EA]/ [E^G] | %7
w: Back to the one- ness of|heav- en,|Back where the faith- ful have|
w: Je- sus is call- ing His|peo- ple|Back to the land of their|
w: Flee- ing from Ba- bel to|Zi- on,|Back to the joy of our|
w: Back to the words of our|Sav- ior,|Lov- ing, o- bey- ing them|
 [EA]6 | [FA]3/2 [FA]/ [FA] [DF]3/2 [EG]/ [FA] | [GB]3 [FA]3 | %10
w: trod.|Back from the land of con-|fu- sion,|
w: choice.|Of- ten our fath- ers have|sought it|
w: life.|O- ver the moun- tains we|wan- dered,|
w: all.|Nev- er in sects to be|scat- tered,|
 [GB]3/2 [GB]/ [GB] [Ad]3/2 [Gc]/ [Fd] | [Ae]6 | [Af]3/2 [Ae]/ [Ad] [Ge]3/2 [Gd]/ [GB] | %13
w: Pass- ing the wrecks and the|creeds;|Back to the light of the|
w: While we in Ba- bel a-|bode,|Now we have found the fair|
w: Look- ing in vain for the|right;|Now in the eve- ning we’ve|
w: Nev- er a- gain to do|wrong;|U- ni- ty, ho- li- ness,|
 [FA]3 [Fd]3 | [DF]3/2 [DF]/ [DF] [DF]2 [CE] | [A,D]6 || %16
w: morn- ing,|Je- sus our Cap- tain|leads.|
w: cit- y—|Church of the liv- ing|God.|
w: found it:|Truth of the gos- pel|light.|
w: heav- en,|Ev- er shall be our|song.|
"^Refrain" [FA]3/2 [FA]/ [FA] [DF]3/2 [DA]/ [Dd] | [Fd]3 [Ec]3 | %18
w: Back to the bless- ed old|Bi- ble,|
w: ||
w: ||
w: ||
 [Ec]3/2 [DB]/ [CA] [EB]3/2 [EA]/ [E^G] | [EA]6 | [FA]3/2 [FA]/ [FA] [DF]3/2 [FA]/ [Ad] | %21
w: Back to the light of its|word;|Be on our ban- ners for-|
w: |||
w: |||
w: |||
 [Gd]3 [GB]3 | [Gc]3/2 [GB]/ [GA] [GA]3/2 [GB]/ [Gc] | [Fd]6 |] %24
w: ev- er:|“Ho- li- ness un- to the|Lord.”|
w: |||
w: |||
w: |||
V:2
 x6 | x6 | z3 z2 D | x6 | x6 | x6 | x6 | x6 | x6 | x6 | x6 | x6 | x6 | x6 | x6 | x6 || x6 | x6 | %18
 x6 | x6 | x6 | x6 | x6 | x6 |] %24
V:3
 [D,D]3/2 [D,D]/ [D,D] [D,A,]3/2 [D,A,]/ [D,D] | [D,D]3 [D,D]3 | %2
 [D,A,]3/2 [D,A,]/ [D,A,] ([D,A,]3/2 [D,G,]/) [D,F,] | [A,,A,]6 | %4
 [D,D]3/2 [D,D]/ [D,D] [D,A,]3/2 [D,A,]/ [D,D] | [D,D]3 [D,D]3 | %6
 [E,A,]3/2 [E,^G,]/ [E,A,] [E,D]3/2 [E,C]/ [E,B,] | [A,,C]6 | %8
 [D,D]3/2 [D,D]/ [D,D] [D,A,]3/2 [D,A,]/ [D,D] | [D,D]3 [D,D]3 | %10
 [G,D]3/2 [G,D]/ [G,D] [F,A,]3/2 [E,A,]/ [D,D] | [A,C]6 | %12
 [D,D]3/2 [E,C]/ [F,D] [G,B,]3/2 [G,B,]/ [G,D] | [D,D]3 [D,A,]3 | %14
 [A,,A,]3/2 [A,,A,]/ [A,,A,] [A,,A,]2 [A,,G,] | [D,F,]6 || %16
 [D,D]3/2 [D,D]/ [D,D] [D,A,]3/2 [D,F,]/ [D,A,] | [D,A,]3 [E,A,]3 | %18
 [E,A,]3/2 [E,A,]/ [E,A,] [E,D]3/2 [E,C]/ [E,B,] | [A,,A,C]6 | %20
 [D,D]3/2 [D,D]/ [D,D] [D,A,]3/2 [D,A,]/ [F,A,] | [G,B,]3 [G,D]3 | %22
 A,3/2 A,/A, [A,,A,]3/2 [A,,A,]/[A,,A,] | [D,A,]6 |] %24
V:4
 x6 | x6 | x6 | x6 | x6 | x6 | x6 | x6 | x6 | x6 | x6 | x6 | x6 | x6 | x6 | x6 || x6 | x6 | x6 | %19
 x6 | x6 | x6 | A,3/2 A,/A, z3 | x6 |] %24

